Housesale/img/icon-03.svg

<svg width="90" height="90" viewBox="0 0 90 90" fill="none" xmlns="http://www.w3.org/2000/svg">
<path d="M45.4203 82.0168L78.1819 74.3877C84.3558 66.9344 88.0671 57.3673 88.0671 46.933C88.0671 23.1478 68.7855 3.86621 45.0004 3.86621C21.2152 3.86621 1.93359 23.1478 1.93359 46.933C1.93359 57.4674 5.71799 67.1165 11.9987 74.6002L45.4203 82.0168Z" fill="#FFC839"/>
<path d="M20.6701 76.9102C22.4433 78.2872 24.6318 79.0352 26.8857 79.0352C29.1396 79.0352 31.3279 78.2872 33.1011 76.9102C34.4118 75.8924 35.8096 74.5069 37.0344 72.7635C36.692 72.664 36.3457 72.5701 35.995 72.4822C35.6169 72.3875 35.2847 72.16 35.0701 71.8575C34.0811 70.4623 33.8071 68.3055 33.7535 66.7412C33.0597 67.5493 32.3316 68.225 31.636 68.7652C28.846 70.9318 24.9217 70.929 22.1352 68.7652C21.4395 68.225 20.7115 67.5491 20.0177 66.7412C19.9625 68.3401 19.6779 70.5585 18.6343 71.9494C18.4563 72.1867 18.1819 72.3806 17.853 72.4622C17.4766 72.5554 17.1054 72.657 16.7373 72.764C17.9618 74.5072 19.3594 75.8924 20.6701 76.9102Z" fill="#FCAD6D"/>
<path d="M26.6329 70.3839C25.0393 70.3322 23.4588 69.793 22.1352 68.7652C21.4394 68.225 20.7115 67.5491 20.0177 66.7412C19.9625 68.3401 19.6779 70.5585 18.6343 71.9494C18.4563 72.1867 18.1819 72.3806 17.853 72.4622C17.4766 72.5554 17.1054 72.657 16.7373 72.764C17.9618 74.5071 19.3594 75.8924 20.6701 76.91C21.5252 77.5739 22.4773 78.09 23.4862 78.4482C25.456 75.849 26.2849 72.6223 26.6329 70.3839Z" fill="#FD995B"/>
<path d="M39.5139 81.6025C41.101 78.4282 43.634 77.0617 45.4207 76.4751C44.8819 76.3171 44.4238 76.0177 43.6583 75.5862C41.4826 74.3592 39.2296 73.3808 36.7749 72.6926C35.5758 74.416 34.2 75.7811 32.9117 76.7815C31.1924 78.1165 29.0707 78.8418 26.8856 78.8418C24.7004 78.8418 22.5788 78.1167 20.8594 76.7815C19.5708 75.7809 18.1946 74.4155 16.9956 72.6914C15.2492 73.1818 13.5939 73.827 11.999 74.6C18.4525 82.2896 27.543 87.6903 37.8786 89.411C38.2149 86.6314 38.7417 83.1467 39.5139 81.6025Z" fill="#3C58A0"/>
<path d="M19.5648 81.6853C21.2868 80.8689 22.6044 79.6569 23.6115 78.2807C22.6254 77.9332 21.6946 77.4299 20.8595 76.7815C19.5708 75.7809 18.1946 74.4155 16.9956 72.6914C15.2492 73.1818 13.5939 73.827 11.999 74.6C14.226 77.2535 16.7673 79.6341 19.5648 81.6853Z" fill="#1C2E7A"/>
<path d="M61.2206 12.9598C62.2966 12.9598 63.1688 12.0876 63.1688 11.0117C63.1688 9.93571 62.2966 9.06348 61.2206 9.06348C60.1447 9.06348 59.2725 9.93571 59.2725 11.0117C59.2725 12.0876 60.1447 12.9598 61.2206 12.9598Z" fill="#4FABF7"/>
<path d="M54.5761 12.9598C55.6521 12.9598 56.5243 12.0876 56.5243 11.0117C56.5243 9.93571 55.6521 9.06348 54.5761 9.06348C53.5002 9.06348 52.6279 9.93571 52.6279 11.0117C52.6279 12.0876 53.5002 12.9598 54.5761 12.9598Z" fill="#4FABF7"/>
<path d="M47.9296 12.9598C49.0056 12.9598 49.8778 12.0876 49.8778 11.0117C49.8778 9.93571 49.0056 9.06348 47.9296 9.06348C46.8537 9.06348 45.9814 9.93571 45.9814 11.0117C45.9814 12.0876 46.8537 12.9598 47.9296 12.9598Z" fill="#4FABF7"/>
<path d="M75.6491 53.3633C75.6746 54.7581 75.5368 56.1865 75.3877 57.1391C74.6839 60.2411 73.6677 62.942 72.368 65.1663C71.7786 66.1749 71.0435 67.0916 70.1825 67.8912L70.0723 67.9937V68.6884C70.0723 69.4086 70.3521 70.0745 70.8285 70.6878C73.4956 70.5266 75.763 69.9862 77.5504 69.3708C79.7017 68.6299 80.6434 66.0797 79.468 64.1313C76.7003 59.5438 77.1127 53.3633 77.1127 53.3633H75.6491Z" fill="#2A428C"/>
<path d="M79.4672 64.1315C79.2075 63.7012 78.9758 63.2567 78.7691 62.8048C75.5479 64.6733 74.2607 62.0257 74.2607 62.0257C74.2607 62.0257 74.1775 61.9037 74.025 61.6768C73.5382 62.9419 72.9852 64.1087 72.367 65.1664C71.7776 66.175 71.0423 67.0917 70.1815 67.8913L70.0713 67.9938V68.6885C70.0713 69.4087 70.3511 70.0747 70.8275 70.6878C73.4946 70.5266 75.762 69.9863 77.5494 69.3709C79.7009 68.6301 80.6426 66.0797 79.4672 64.1315Z" fill="#1C2E7A"/>
<path d="M52.3561 69.3714C54.1433 69.9868 56.4108 70.527 59.078 70.6884C59.5545 70.0751 59.8343 69.409 59.8343 68.689V67.8358L59.7289 67.734C58.941 66.9734 58.2622 66.1098 57.7113 65.1671C56.4108 62.9412 55.395 60.2415 54.6922 57.143C54.5382 56.2446 54.3992 54.7927 54.4301 53.3643H52.794C52.794 53.3643 53.2063 59.5445 50.4387 64.1323C49.263 66.0801 50.2049 68.6305 52.3561 69.3714Z" fill="#1C2E7A"/>
<path d="M71.2888 35.5528C69.6305 34.6973 67.5686 34.1035 65.0393 34.1035C62.51 34.1035 60.448 34.6971 58.7897 35.5528C55.1597 37.4256 52.9229 41.1443 52.9229 45.1568V50.1066L52.923 50.1082C53.4955 50.0949 54.1289 50.2824 54.5369 50.5544C54.6873 50.0623 54.893 49.6364 55.1713 49.323C55.4216 49.0409 55.5787 48.6918 55.5898 48.3184C55.6325 46.8895 56.0075 43.5126 58.5238 42.22C59.2248 41.8599 60.0814 42.1346 60.4751 42.8173C61.9909 45.4453 65.5265 48.9083 73.3892 47.4325C73.9468 47.3279 74.4708 47.7424 74.4882 48.3096C74.4884 48.3126 74.4884 48.3156 74.4884 48.3186C74.4995 48.692 74.6566 49.0411 74.9071 49.3232C75.1852 49.6366 75.391 50.0627 75.5413 50.5545C75.9493 50.2826 76.5827 50.095 77.1552 50.1084L77.1553 50.1068V45.157C77.1557 41.1443 74.9189 37.4256 71.2888 35.5528Z" fill="#2A428C"/>
<path d="M64.8871 46.5507C60.9901 39.1058 68.3119 34.4673 68.3119 34.4673C67.3199 34.2379 66.2319 34.1045 65.0383 34.1045C62.509 34.1045 60.4471 34.6981 58.7888 35.5538C55.1587 37.4266 52.9219 41.1452 52.9219 45.1578V50.1076L52.9221 50.1092C53.4946 50.0958 54.1279 50.2834 54.5359 50.5553C54.6864 50.0633 54.892 49.6374 55.1701 49.324C55.4204 49.0419 55.5776 48.6928 55.5888 48.3194C55.6315 46.8905 56.0065 43.5135 58.5228 42.221C59.2238 41.8608 60.0804 42.1356 60.4741 42.8183C61.2935 44.239 62.7053 45.9024 65.0699 46.8989C65.0089 46.7825 64.9479 46.6667 64.8871 46.5507Z" fill="#1C2E7A"/>
<path d="M54.4371 57.191C54.4371 57.191 53.7799 53.0318 54.5368 50.5549C53.85 50.0972 52.5231 49.8736 51.9263 50.457C50.7044 51.6514 51.5997 53.4553 52.0281 54.5947C52.1596 54.9445 52.2445 55.2984 52.2828 55.6529C52.3661 56.4232 52.7838 57.5506 54.5155 57.5241C54.4895 57.413 54.4628 57.3038 54.4371 57.191Z" fill="#FD995B"/>
<path d="M78.1515 50.4561C77.5548 49.8726 76.2278 50.0961 75.541 50.554C76.2979 53.0309 75.6407 57.1901 75.6407 57.1901C75.615 57.3029 75.5883 57.4121 75.5621 57.5232C77.2939 57.5497 77.7114 56.4222 77.7949 55.652C77.8332 55.2974 77.9181 54.9436 78.0496 54.5938C78.4782 53.4544 79.3734 51.6505 78.1515 50.4561Z" fill="#FCAD6D"/>
<path d="M24.5881 34.2467C17.6906 35.1865 17.0349 39.0972 17.032 40.532C17.0313 40.8329 16.8646 41.1117 16.5941 41.2434C13.0062 42.9887 14.9407 51.4007 14.9407 51.4007C15.301 51.4248 15.8414 51.734 16.1226 51.8702C16.1915 51.4415 16.304 51.0196 16.4628 50.6116C16.5837 50.3008 16.7351 49.9867 16.9242 49.6902C17.2524 49.1755 17.4018 48.5682 17.3571 47.961C17.2281 46.2062 17.1271 42.9113 19.4435 41.8691C21.4059 40.9862 23.8132 41.4974 25.3483 42.0078C26.3454 42.3393 27.4252 42.3393 28.4222 42.0078C29.9573 41.4974 32.3647 40.986 34.3271 41.8691C36.6368 42.9083 36.5421 46.1865 36.4145 47.9461C36.3702 48.5578 36.5156 49.1713 36.8462 49.69C37.0415 49.9962 37.1964 50.3209 37.3192 50.6415C37.472 51.0402 37.5806 51.4518 37.6478 51.8702C38.0023 51.6985 38.6724 51.3481 39.1059 51.4093C39.1589 49.5699 39.3288 47.5871 39.3288 47.5871C41.3726 37.5759 32.0148 33.2348 24.5881 34.2467Z" fill="#2A428C"/>
<path d="M24.5881 34.2472C17.6906 35.1869 17.0349 39.0977 17.032 40.5324C17.0313 40.8333 16.8646 41.1121 16.5941 41.2438C13.0062 42.9891 14.9407 51.4011 14.9407 51.4011C15.301 51.4252 15.8414 51.7344 16.1226 51.8706C16.1915 51.4419 16.304 51.02 16.4628 50.612C16.5837 50.3013 16.7351 49.9871 16.9242 49.6906C17.2524 49.1759 17.4018 48.5686 17.3571 47.9614C17.2281 46.2066 17.1271 42.9118 19.4435 41.8696C21.4059 40.9866 23.8132 41.4978 25.3483 42.0083C25.7683 42.1478 26.203 42.2252 26.64 42.2471C26.573 42.1324 26.5015 42.0183 26.4215 41.9058C23.4624 37.7468 27.5757 34.7162 28.3695 34.1865C27.0963 34.0598 25.8159 34.0798 24.5881 34.2472Z" fill="#1C2E7A"/>
<path d="M39.7169 51.6481C39.1797 51.1558 38.1096 51.4054 37.6469 51.7068C37.7483 52.3381 37.7541 52.9839 37.6664 53.6215L37.1204 57.5982C37.1204 57.9188 37.1104 58.2332 37.0918 58.5423C38.4232 58.9439 39.0845 57.7486 39.1959 56.9282C39.2439 56.5751 39.3223 56.2271 39.4311 55.8875C39.7853 54.7814 41.0629 52.8816 39.7169 51.6481Z" fill="#FCAD6D"/>
<path d="M14.0521 51.6481C14.5893 51.1558 15.6594 51.4054 16.1221 51.7068C16.0206 52.3381 16.0148 52.9839 16.1026 53.6215L16.6485 57.5982C16.6485 57.9188 16.6587 58.2332 16.6772 58.5423C15.3458 58.9439 14.6844 57.7486 14.5731 56.9282C14.5251 56.5751 14.4467 56.2271 14.3379 55.8875C13.9837 54.7814 12.7061 52.8816 14.0521 51.6481Z" fill="#FD995B"/>
<path d="M37.4822 50.4779C37.3593 50.1572 37.2044 49.8326 37.0091 49.5262C36.6785 49.0075 36.5331 48.394 36.5774 47.7823C36.7048 46.0227 36.6365 42.5814 34.3267 41.5422C32.3643 40.6593 29.9573 41.1704 28.4222 41.6809C27.4254 42.0124 26.3448 42.0124 25.3478 41.6809C23.8127 41.1704 21.4056 40.6593 19.4433 41.5422C17.1269 42.5844 17.0648 46.0426 17.1937 47.7974C17.2383 48.4045 17.0889 49.0117 16.7607 49.5265C16.5716 49.8233 16.4204 50.1372 16.2995 50.448C15.9069 51.4563 15.7925 52.5496 15.9396 53.6203L16.4858 57.5979C16.4858 63.3162 19.5384 67.2029 22.1349 69.2193C23.4901 70.2717 25.1627 70.8435 26.8852 70.8435C28.6077 70.8435 30.2802 70.2719 31.6355 69.2193C34.232 67.2031 37.2846 63.3162 37.2846 57.5979L37.8305 53.6212C37.9759 52.5611 37.8657 51.4782 37.4822 50.4779Z" fill="#F9BA8F"/>
<path d="M29.7171 69.2193C27.1206 67.2031 24.068 63.3162 24.068 57.5979L23.5219 53.6203C23.3749 52.5496 23.4893 51.4563 23.8817 50.448C24.0026 50.1372 24.154 49.8233 24.3429 49.5265C24.6711 49.0119 24.8205 48.4045 24.7759 47.7974C24.6593 46.2106 24.6994 43.2318 26.4203 41.905C26.0572 41.8704 25.6966 41.7973 25.3468 41.6809C23.8117 41.1704 21.4046 40.6593 19.4423 41.5422C17.1259 42.5844 17.0638 46.0426 17.1927 47.7974C17.2373 48.4045 17.0879 49.0117 16.7597 49.5265C16.5706 49.8233 16.4194 50.1372 16.2985 50.448C15.906 51.4563 15.7915 52.5496 15.9387 53.6203L16.4848 57.5979C16.4848 63.3162 19.5374 67.2029 22.1339 69.2193C23.4892 70.2717 25.1617 70.8435 26.8842 70.8435C28.22 70.8435 29.5248 70.4983 30.6758 69.8532C30.3425 69.6665 30.0216 69.4557 29.7171 69.2193Z" fill="#FCAD6D"/>
<path d="M47.8249 27.3445C48.237 26.3504 47.7651 25.2103 46.7709 24.7983C45.7768 24.3862 44.6368 24.858 44.2247 25.8522C43.8126 26.8464 44.2845 27.9864 45.2786 28.3985C46.2728 28.8106 47.4128 28.3387 47.8249 27.3445Z" fill="#E9EFFF"/>
<path d="M37.4131 26.5947C37.4131 27.6706 38.2853 28.5429 39.3613 28.5429C40.4372 28.5429 41.3095 27.6706 41.3095 26.5947C41.3095 25.5187 40.4372 24.6465 39.3613 24.6465C38.2851 24.6467 37.4131 25.5189 37.4131 26.5947Z" fill="#E9EFFF"/>
<path d="M34.529 27.3465C34.9411 26.3523 34.4692 25.2123 33.475 24.8002C32.4809 24.3881 31.3409 24.86 30.9288 25.8542C30.5167 26.8484 30.9886 27.9884 31.9827 28.4005C32.9769 28.8125 34.1169 28.3407 34.529 27.3465Z" fill="#E9EFFF"/>
<path d="M54.1095 74.0977C56.0315 77.3869 58.9421 79.945 62.5268 81.4959C64.1324 82.1903 65.9734 82.1905 67.5786 81.4959C71.1633 79.945 74.0739 77.3869 75.9959 74.0977C76.0725 73.9667 76.1474 73.8329 76.2225 73.6995C73.2115 72.5325 70.431 70.877 70.431 68.7167C70.431 67.9568 70.431 68.1844 70.431 67.6924C69.106 68.877 66.8338 70.3861 64.9624 70.4314C63.0911 70.3861 60.8189 68.877 59.4939 67.6924C59.4939 69.1051 59.8688 70.8055 55.4286 72.9612C54.9301 73.2033 54.3983 73.4315 53.8525 73.6459C53.9376 73.7973 54.0227 73.949 54.1095 74.0977Z" fill="#FCAD6D"/>
<path d="M59.4939 67.6924C59.4939 69.1051 59.8688 70.8055 55.4286 72.9612C54.9301 73.2033 54.3983 73.4315 53.8525 73.6459C53.9376 73.7974 54.0227 73.9491 54.1095 74.0979C55.4114 76.3259 57.1681 78.2169 59.2794 79.6882C62.842 77.071 64.2004 73.0664 64.7188 70.4142C62.8972 70.2539 60.7622 68.8262 59.4939 67.6924Z" fill="#FD995B"/>
<path d="M45 89.9992C58.3507 89.9992 70.2819 83.9237 78.1815 74.3872C77.3966 74.1364 76.59 73.8523 75.807 73.5344C75.7067 73.7147 75.6054 73.8936 75.5026 74.0698C73.6666 77.2119 70.8862 79.6556 67.4618 81.1372C65.9283 81.8006 64.1698 81.8006 62.6359 81.1372C59.2117 79.6558 56.4312 77.2119 54.5952 74.0698C54.4821 73.8762 54.3705 73.6801 54.2607 73.4814C50.7092 74.9453 46.3236 75.7961 46.3052 75.8007C44.6982 76.1092 41.1713 77.2316 39.1616 81.2506C38.3627 82.8485 37.8263 86.5237 37.4922 89.3457C39.9303 89.7744 42.4388 89.9992 45 89.9992Z" fill="#FC90CE"/>
<path d="M56.9093 81.0511C57.9248 80.6062 58.8134 80.0622 59.5911 79.4512C57.5483 78.04 55.8508 76.2185 54.5952 74.0698C54.4821 73.8762 54.3705 73.6801 54.2607 73.4814C50.7092 74.9454 46.3236 75.7961 46.3052 75.8007C44.6982 76.1092 41.1713 77.2316 39.1616 81.2506C38.3627 82.8485 37.8263 86.5237 37.4922 89.3457C39.9304 89.7746 42.439 89.9994 45.0002 89.9994C46.3197 89.9994 47.6249 89.9377 48.9143 89.8215C48.9533 84.3491 49.4958 84.2996 56.9093 81.0511Z" fill="#F964B2"/>
<path d="M74.5753 48.316C74.5698 48.1343 74.5584 47.9145 74.5371 47.669C74.4733 47.5769 74.397 47.4925 74.3077 47.4206C74.0365 47.2025 73.6835 47.1144 73.3418 47.1784C65.8444 48.5855 62.3293 45.5132 60.6996 42.6882C60.402 42.1721 59.8865 41.8613 59.34 41.8105C58.8773 41.9389 58.4523 42.131 58.0664 42.388C55.8695 43.8508 55.5426 47.0209 55.5039 48.316C55.4939 48.6563 55.3566 48.9849 55.1068 49.2661C53.7311 50.8163 54.0324 55.3452 54.3534 57.2099C55.0643 60.3472 56.0938 63.0827 57.4131 65.3408C58.7525 67.6332 60.781 69.4159 63.2791 70.4968C64.3981 70.9807 65.6809 70.9807 66.7998 70.4968C69.298 69.4159 71.3263 67.6332 72.6658 65.3408C73.985 63.0834 75.0146 60.3477 75.7268 57.2044C76.0351 55.2443 76.3635 50.8343 74.972 49.2663C74.7226 48.9847 74.5855 48.6562 74.5753 48.316Z" fill="#F9BA8F"/>
<path d="M66.6076 65.3405C65.2882 63.0824 64.2587 60.3469 63.548 57.2097C63.227 55.345 62.9257 50.8162 64.3014 49.266C64.551 48.9847 64.6883 48.6564 64.6985 48.316C64.7111 47.8887 64.756 47.257 64.8882 46.5501C62.8301 45.6064 61.5234 44.1161 60.6996 42.6882C60.402 42.1721 59.8865 41.8613 59.3402 41.8105C58.8775 41.9389 58.4525 42.131 58.0664 42.388C55.8695 43.8508 55.5426 47.0211 55.5039 48.316C55.4937 48.6564 55.3566 48.9849 55.1068 49.266C53.7311 50.8162 54.0324 55.345 54.3534 57.2097C55.0641 60.347 56.0938 63.0826 57.4131 65.3405C58.7525 67.6328 60.781 69.4156 63.2791 70.4965C64.3981 70.9804 65.6809 70.9804 66.7998 70.4965C67.8311 70.0502 68.781 69.4826 69.6367 68.8106C68.4198 67.855 67.3941 66.6864 66.6076 65.3405Z" fill="#FCAD6D"/>
</svg>

<svg width="90" height="90" fill="none" xmlns="http://www.w3.org/2000/svg"><path d="M45.42 82.017l32.762-7.63a42.89 42.89 0 009.885-27.454C88.067 23.148 68.786 3.866 45 3.866c-23.785 0-43.066 19.282-43.066 43.067A42.89 42.89 0 0011.999 74.6l33.421 7.417z" fill="#FFC839"/><path d="M20.67 76.91a10.135 10.135 0 006.216 2.125c2.254 0 4.442-.748 6.215-2.125a19.42 19.42 0 003.933-4.147 28.92 28.92 0 00-1.039-.28 1.624 1.624 0 01-.925-.626c-.989-1.395-1.263-3.552-1.316-5.116a14.679 14.679 0 01-2.118 2.024 7.76 7.76 0 01-9.5 0 14.684 14.684 0 01-2.118-2.024c-.056 1.6-.34 3.817-1.384 5.208a1.406 1.406 0 01-.781.513c-.376.093-.748.195-1.116.302a19.412 19.412 0 003.933 4.146z" fill="#FCAD6D"/><path d="M26.633 70.384a7.73 7.73 0 01-4.498-1.619 14.68 14.68 0 01-2.117-2.024c-.056 1.6-.34 3.817-1.384 5.208a1.406 1.406 0 01-.781.513c-.376.093-.748.195-1.116.302a19.408 19.408 0 003.933 4.146 10.1 10.1 0 002.816 1.538c1.97-2.599 2.799-5.826 3.147-8.064z" fill="#FD995B"/><path d="M39.514 81.603c1.587-3.175 4.12-4.541 5.907-5.128-.54-.158-.997-.457-1.763-.889-2.175-1.227-4.428-2.205-6.883-2.893a18.824 18.824 0 01-3.863 4.088 9.827 9.827 0 01-6.026 2.06 9.826 9.826 0 01-6.027-2.06 18.812 18.812 0 01-3.863-4.09 30.042 30.042 0 00-4.997 1.909c6.454 7.69 15.544 13.09 25.88 14.811.336-2.78.863-6.264 1.635-7.808z" fill="#3C58A0"/><path d="M19.565 81.685c1.722-.816 3.04-2.028 4.046-3.404a9.793 9.793 0 01-2.752-1.5 18.81 18.81 0 01-3.863-4.09 30.042 30.042 0 00-4.997 1.909 43.327 43.327 0 007.566 7.085z" fill="#1C2E7A"/><path d="M61.22 12.96a1.948 1.948 0 100-3.896 1.948 1.948 0 000 3.896zm-6.644 0a1.948 1.948 0 100-3.896 1.948 1.948 0 000 3.896zm-6.646 0a1.948 1.948 0 100-3.896 1.948 1.948 0 000 3.896z" fill="#4FABF7"/><path d="M75.65 53.363a23.194 23.194 0 01-.262 3.776c-.704 3.102-1.72 5.803-3.02 8.027a11.934 11.934 0 01-2.185 2.725l-.11.103v.694c0 .72.28 1.386.756 2a25.369 25.369 0 006.721-1.317c2.152-.741 3.093-3.291 1.918-5.24-2.768-4.587-2.355-10.768-2.355-10.768h-1.464z" fill="#2A428C"/><path d="M79.467 64.132c-.26-.43-.491-.875-.698-1.327-3.221 1.868-4.508-.78-4.508-.78s-.084-.121-.236-.348a23.98 23.98 0 01-1.658 3.49 11.94 11.94 0 01-2.186 2.724l-.11.103v.695c0 .72.28 1.386.757 1.999a25.37 25.37 0 006.721-1.317c2.152-.74 3.094-3.291 1.918-5.24zm-27.111 5.239a25.374 25.374 0 006.722 1.317c.476-.613.756-1.279.756-1.999v-.853l-.105-.102a11.945 11.945 0 01-2.018-2.567c-1.3-2.226-2.316-4.925-3.019-8.024a21.444 21.444 0 01-.262-3.779h-1.636s.412 6.18-2.355 10.768c-1.176 1.948-.234 4.498 1.917 5.24z" fill="#1C2E7A"/><path d="M71.289 35.553c-1.659-.856-3.72-1.45-6.25-1.45-2.529 0-4.591.594-6.25 1.45a10.81 10.81 0 00-5.866 9.604v4.951c.572-.013 1.206.174 1.614.446.15-.492.356-.918.634-1.231a1.59 1.59 0 00.419-1.005c.042-1.428.417-4.805 2.934-6.098.7-.36 1.557-.085 1.951.597 1.516 2.628 5.051 6.091 12.914 4.615a.926.926 0 011.1.878v.009c.01.373.168.722.418 1.004.278.314.484.74.634 1.231.408-.271 1.042-.459 1.614-.446v-4.951a10.81 10.81 0 00-5.866-9.604z" fill="#2A428C"/><path d="M64.887 46.55c-3.897-7.444 3.425-12.083 3.425-12.083-.992-.23-2.08-.362-3.274-.362-2.529 0-4.59.593-6.25 1.449a10.81 10.81 0 00-5.866 9.604v4.951c.573-.013 1.206.174 1.614.446.15-.492.356-.918.634-1.231.25-.282.408-.631.419-1.005.043-1.428.418-4.806 2.934-6.098.7-.36 1.557-.085 1.951.597.82 1.421 2.231 3.084 4.596 4.08l-.183-.347z" fill="#1C2E7A"/><path d="M54.437 57.191s-.657-4.16.1-6.636c-.687-.458-2.014-.681-2.61-.098-1.223 1.194-.327 2.998.101 4.138.132.35.217.703.255 1.058.083.77.5 1.898 2.233 1.871l-.079-.333z" fill="#FD995B"/><path d="M78.151 50.456c-.596-.583-1.923-.36-2.61.098.757 2.477.1 6.636.1 6.636l-.079.333c1.732.027 2.15-1.1 2.233-1.871.038-.355.123-.708.255-1.058.428-1.14 1.323-2.944.102-4.138z" fill="#FCAD6D"/><path d="M24.588 34.247c-6.897.94-7.553 4.85-7.556 6.285 0 .3-.167.58-.438.711-3.588 1.746-1.653 10.158-1.653 10.158.36.024.9.333 1.182.47.069-.43.181-.851.34-1.26.12-.31.272-.624.461-.92a2.829 2.829 0 00.433-1.73c-.129-1.755-.23-5.05 2.087-6.092 1.962-.883 4.37-.372 5.904.139a4.875 4.875 0 003.074 0c1.535-.51 3.943-1.022 5.905-.139 2.31 1.04 2.215 4.318 2.087 6.077a2.858 2.858 0 00.432 1.744c.196.306.35.63.473.952.153.398.262.81.329 1.228.354-.171 1.024-.522 1.458-.46.053-1.84.223-3.823.223-3.823 2.044-10.011-7.314-14.352-14.74-13.34z" fill="#2A428C"/><path d="M24.588 34.247c-6.897.94-7.553 4.85-7.556 6.285a.79.79 0 01-.438.712c-3.588 1.745-1.653 10.157-1.653 10.157.36.024.9.333 1.182.47.069-.43.181-.851.34-1.259.12-.31.272-.625.461-.921a2.829 2.829 0 00.433-1.73c-.129-1.754-.23-5.05 2.087-6.091 1.962-.883 4.37-.372 5.904.138.42.14.855.217 1.292.24a4.513 4.513 0 00-.218-.342c-2.96-4.16 1.154-7.19 1.947-7.72a16.227 16.227 0 00-3.78.061z" fill="#1C2E7A"/><path d="M39.717 51.648c-.537-.492-1.607-.243-2.07.059a6.53 6.53 0 01.02 1.914l-.547 3.977c0 .32-.01.635-.028.944 1.331.402 1.992-.793 2.104-1.614.048-.353.126-.7.235-1.04.354-1.107 1.632-3.006.286-4.24z" fill="#FCAD6D"/><path d="M14.052 51.648c.537-.492 1.607-.243 2.07.059a6.49 6.49 0 00-.02 1.914l.546 3.977c0 .32.01.635.03.944-1.332.402-1.994-.793-2.105-1.614a6.104 6.104 0 00-.235-1.04c-.354-1.107-1.632-3.006-.286-4.24z" fill="#FD995B"/><path d="M37.482 50.478a5.3 5.3 0 00-.473-.952 2.858 2.858 0 01-.432-1.744c.128-1.76.06-5.2-2.25-6.24-1.963-.883-4.37-.372-5.905.139a4.876 4.876 0 01-3.074 0c-1.535-.51-3.942-1.022-5.905-.139-2.316 1.042-2.378 4.5-2.25 6.255a2.83 2.83 0 01-.432 1.73c-.19.296-.34.61-.462.921a6.356 6.356 0 00-.36 3.172l.547 3.978c0 5.718 3.052 9.605 5.649 11.621a7.746 7.746 0 004.75 1.625 7.745 7.745 0 004.75-1.625c2.597-2.016 5.65-5.903 5.65-11.621l.546-3.977a6.363 6.363 0 00-.349-3.143z" fill="#F9BA8F"/><path d="M29.717 69.22c-2.596-2.017-5.649-5.904-5.649-11.622l-.546-3.978a6.359 6.359 0 01.36-3.172c.12-.31.272-.625.46-.922a2.83 2.83 0 00.434-1.729c-.117-1.586-.077-4.565 1.644-5.892a4.857 4.857 0 01-1.073-.224c-1.535-.51-3.942-1.022-5.905-.139-2.316 1.042-2.378 4.5-2.25 6.255a2.83 2.83 0 01-.432 1.73c-.19.296-.34.61-.462.921a6.356 6.356 0 00-.36 3.172l.547 3.978c0 5.718 3.052 9.605 5.649 11.621a7.756 7.756 0 008.542.634 7.69 7.69 0 01-.959-.634z" fill="#FCAD6D"/><path d="M47.825 27.345a1.949 1.949 0 10-3.6-1.493 1.949 1.949 0 003.6 1.492zm-10.412-.75a1.948 1.948 0 103.897 0 1.948 1.948 0 00-3.897 0zm-2.884.751a1.949 1.949 0 10-3.6-1.492 1.949 1.949 0 003.6 1.492z" fill="#E9EFFF"/><path d="M54.11 74.098c1.922 3.289 4.832 5.847 8.417 7.398a6.385 6.385 0 005.052 0c3.584-1.551 6.495-4.11 8.417-7.398.077-.131.151-.265.227-.398-3.011-1.168-5.792-2.823-5.792-4.983v-1.025c-1.325 1.185-3.597 2.694-5.469 2.74-1.87-.046-4.143-1.555-5.468-2.74 0 1.413.375 3.114-4.065 5.27-.499.241-1.03.47-1.577.684.086.151.17.303.258.452z" fill="#FCAD6D"/><path d="M59.494 67.692c0 1.413.375 3.114-4.065 5.27-.499.241-1.03.47-1.577.684.086.151.17.303.258.452a17.65 17.65 0 005.17 5.59c3.562-2.617 4.92-6.622 5.439-9.274-1.822-.16-3.957-1.588-5.225-2.722z" fill="#FD995B"/><path d="M45 90c13.35 0 25.282-6.076 33.181-15.613a33.272 33.272 0 01-2.374-.853c-.1.18-.202.36-.304.536-1.836 3.142-4.617 5.586-8.041 7.067a6.1 6.1 0 01-4.826 0c-3.424-1.481-6.205-3.925-8.04-7.067-.114-.194-.225-.39-.335-.589-3.552 1.464-7.937 2.315-7.956 2.32-1.607.308-5.134 1.43-7.143 5.45-.8 1.597-1.336 5.273-1.67 8.095 2.438.428 4.947.653 7.508.653z" fill="#FC90CE"/><path d="M56.91 81.051a12.33 12.33 0 002.681-1.6 16.864 16.864 0 01-4.996-5.381c-.113-.194-.224-.39-.334-.589-3.552 1.464-7.937 2.315-7.956 2.32-1.607.308-5.134 1.43-7.143 5.45-.8 1.597-1.336 5.273-1.67 8.095a43.309 43.309 0 0011.422.475c.04-5.472.582-5.521 7.995-8.77z" fill="#F964B2"/><path d="M74.575 48.316a11.594 11.594 0 00-.038-.647 1.18 1.18 0 00-1.195-.49c-7.498 1.407-11.013-1.666-12.642-4.49a1.758 1.758 0 00-1.36-.879 4.424 4.424 0 00-1.274.578c-2.197 1.463-2.523 4.633-2.562 5.928-.01.34-.147.669-.397.95-1.376 1.55-1.075 6.08-.754 7.944.711 3.137 1.74 5.873 3.06 8.13 1.34 2.293 3.368 4.076 5.866 5.157a4.45 4.45 0 003.52 0c2.499-1.081 4.527-2.864 5.867-5.156 1.319-2.258 2.349-4.993 3.06-8.137.31-1.96.638-6.37-.754-7.938a1.497 1.497 0 01-.397-.95z" fill="#F9BA8F"/><path d="M66.608 65.34c-1.32-2.258-2.35-4.993-3.06-8.13-.321-1.865-.622-6.394.753-7.944.25-.281.387-.61.397-.95.013-.427.058-1.059.19-1.766-2.058-.944-3.365-2.434-4.188-3.862a1.758 1.758 0 00-1.36-.878 4.41 4.41 0 00-1.274.578c-2.197 1.463-2.523 4.633-2.562 5.928-.01.34-.147.669-.397.95-1.376 1.55-1.075 6.079-.754 7.944.711 3.137 1.74 5.873 3.06 8.13 1.34 2.293 3.368 4.076 5.866 5.156a4.45 4.45 0 003.52 0 12.846 12.846 0 002.838-1.685 12.283 12.283 0 01-3.03-3.47z" fill="#FCAD6D"/></svg>
